X:1
T:A Child This Day Is Born
T:Christmas Carols, Ancient & Modern, 1833
T:A Child This Day Is Born
T:Public Domain
C:Christmas Carols, Ancient & Modern, 1833
Z:Public Domain
%%score ( 1 2 ) 3
L:1/8
M:4/4
K:D
V:1 treble 
V:2 treble 
V:3 bass 
V:1
 [A,A]2 | [A,A]2 d2 c2 AB | c2 e2 e2 [Ce]2 | [A,d]2 [Cc]2 dc [DB]2 | [CA]6 [CA]2 | %5
 A2 D2 Bc [G,d]2 | A3 B A3 G | F2 d2 F2 E2 | [A,D]6 ||"^Refrain" [A,A]2 | A2 d2 c2 AB | %11
 C4 z2 e2 x2 | [B,d]2 [Cc]2 dc [DB]2 | C4 z2 A2 x2 | A2 D2 Bc [B,d]2 | A3 B A3 G | F2 d2 F2 E2 | %17
 [A,D]6 |] %18
V:2
 x2 | x4 A,4 | C6 x2 | x4 D2 x2 | x8 | A,4 G,2 x2 | A,4 A,4 | A,4 A,4 | x6 || x2 | A,4 A,4 | %11
 c6 C4 | x4 D2 x2 | A6 C4 | A,4 B,2 x2 | A,4 A,4 | A,4 x4 | x6 |] %18
V:3
 [D,F,]2 | [D,F,]4 [C,E,]4 | [E,A,]6 [E,A,]2 | [D,F,]2 [E,A,]2 [G,B,]2 [G,B,]2 | %4
 [E,A,]4 [E,A,]2 [E,A,]2 | [D,F,]4 [D,G,]2 [D,G,]2 | [D,F,]4 [D,F,]4 | [D,F,]4 [A,,A,]4 | %8
 [D,F,]6 || [D,F,]2 | [D,F,]4 [C,E,]4 | [E,A,]4 [E,A,]4 x2 | [D,F,]2 [E,A,]2 [G,B,]2 [G,B,]2 | %13
 [E,A,]4 [E,A,]4 x2 | [D,F,]4 [D,G,]2 [D,G,]2 | [D,F,]4 [C,E,]4 | [D,F,]4 [A,,A,]4 | [D,F,]6 |] %18

